X:50
T:Don't you go a rushing - Nichols - singing copy
%%VWML:SBG-1-2-7-1
F:http://www.vwml.org/record/SBG/1/2/7
Z:Original Sibelius transcriptions by M. & S. Graebe
M:3/8
I:linebreak $
K:C
V:1 treble nm="P1"
V:1
 G | cc d/c/ | Bc d | eef | d2 g |$ c c/B/ A | cdG | cAB | G ef |$ gge | fef | ggc | d2 d |$ ccc | %14
w: I'll|get my love a|hou- se where-|in she may|be, Where|she may be kept|fa- st with-|out an- y|key, My _|heart is the|hou- se where-|in she may|bide, And|not a key's|
 d/e/ fd | BGG | BGG | c2 z | %18
w: want- * ed to|keep her in-|si- de _|_|

